X:1
T:Title
%%score { ( 1 3 ) | ( 2 4 ) }
L:1/8
M:4/4
K:Bb
V:1 treble nm="Grand Piano"
V:3 treble 
V:2 bass 
V:4 bass 
V:1
 z4 z2 z[Q:1/4=86] [DF] | [DB][CA][DB][Ec] [DB] [DF]2 [DF] | [EG][FA][GB][EG] [DF]3 [DF] | %3
 BABc d B2 d |[M:7/8] [=Ec][Ed][Ec] [Ed]c AG |[M:1/8] F |[M:4/4] [DB][CA][DB][Ec] [DB] [DF]2 [DF] | %7
 [EG][FA][GB][Gc] [^Fd]3 [Fd] | eedc [Fd] [Ff]2 [Ge] |[M:7/8] dcB A [DB]3 |[M:1/8] [DF] | %11
[M:4/4] [DF]2 [Fd]2 [Ec]2 z B, | [EA]6 z2 | [EF]2 [Ge]2 d2 c2 | %14
[M:7/8] [DB]-[DB]-[DB]- [DB]- [DB]3 |[M:1/8] F |[M:4/4] [DB][CA][DB][Ec] [DB] [DF]2 [DF] | %17
 [EG][FA][GB][Gc] [^Fd]3 [Fd] | eedc [Fd] [Ff]2 [Ge] |[M:15/8] dcBA [DB]2- [DB] z2 z6 |] %20
V:2
 z4 z2 z [D,B,] | [B,,B,][B,,B,][B,,B,][B,,B,] [B,,B,] [B,,B,]2 [B,,B,] | %2
 [E,B,][E,B,][E,B,][E,B,] [B,,B,]3 [B,,B,] | %3
 [G,B,D][G,B,D][G,B,D][G,B,D] [G,B,D] [G,B,D]2 [G,B,D] | %4
[M:7/8] [C,B,][C,B,][C,B,] [C,B,] [F,A,E]3 |[M:1/8] [F,A,E] | %6
[M:4/4] [B,,B,][B,,B,][B,,B,][B,,B,] [B,,B,] [B,,B,]2 [B,,B,] | %7
 [E,B,][E,B,][E,G,][E,G,] [D,A,]3 [D,A,] | [F,A,F][F,A,F][F,A,F][F,A,F] [B,,B,] [B,D]2 [E,B,] | %9
[M:7/8] [F,B,F][F,EF][F,DF] [F,CE] [B,,B,]3 |[M:1/8] [B,,B,] | %11
[M:4/4] [B,,B,][B,,B,][B,,B,][B,,B,] [B,,B,][B,,B,][B,,B,]B,, | F,F,F,F, F,2 F,2 | z4 F2 E2 | %14
[M:7/8] B,,B,,B,, B,, B,,3 |[M:1/8] [F,A,E] | %16
[M:4/4] [B,,B,][B,,B,][B,,B,][B,,B,] [B,,B,] [B,,B,]2 [B,,B,] | %17
 [E,B,][E,B,][E,G,][E,G,] [D,A,]3 [D,A,] | [F,A,F][F,A,F][F,A,F][F,A,F] [B,,B,] [B,D]2 [E,B,] | %19
[M:15/8] [F,B,F][F,EF][F,DF][F,CE] [B,,B,]2- [B,,B,] z2 z6 |] %20
V:3
 x8 | x8 | x8 | x8 |[M:7/8] x7 |[M:1/8] x |[M:4/4] x8 | x8 | x8 |[M:7/8] x7 |[M:1/8] x | %11
[M:4/4] z4 z2 [DB]2 | CCCC C2 [A,EF]2 | A,A, z A, z A, z A, |[M:7/8] B,B,B, B, B,3 |[M:1/8] x | %16
[M:4/4] x8 | x8 | x8 |[M:15/8] x15 |] %20
V:4
 x8 | x8 | x8 | x8 |[M:7/8] x7 |[M:1/8] x |[M:4/4] x8 | x8 | x8 |[M:7/8] x7 |[M:1/8] x | %11
[M:4/4] x8 | x8 | F,F,[F,A,]F, [F,A,]F,[F,A,]F, |[M:7/8] x7 |[M:1/8] x |[M:4/4] x8 | x8 | x8 | %19
[M:15/8] x15 |] %20

